!!!OTL-incipit: ES WOLLT EIN JAEGER JAGEN, DREI STUENDLEIN VOR DEM TAGEN
!!!ARE: Europa, Mitteleuropa, Deutschland, Pfalz
!!!SCT: Z0220
!!!TXL: @@DE
!!!YEM: Copyright 1995, estate of Helmut Schaffrath.
**kern	**text
*ICvox	*
*M6/8	*
*k[f#]	*
*G:	*
!LO:TX:a:t=Pfalʒiſch.	!
{8d	Es
=1	=1
8.gL	wollt
16aJ	.
8b/	ein
4b/	Jä-
8b/	-ger
=2	=2
(4dd	ja-
16ccL	.
16bJ)	.
4cc}	-gen,
{8b	drei
=3	=3
8.bL	Stünd-
16aJ	.
8a	-lein
8aL	vor
8bJ	.
8cc	dem
=4	=4
4cc	Ta-
16bL	.
16aJ	.
4b/}	-gen,
{16gL	ein
16aJ	.
=5	=5
8bL	Hirſch-
8ddJ	.
8b	-lein
8aL	o-
8gJ	.
8a	-der
=6	=6
4g	Reh,
16ggL	juch-
16eeJ	.
8.ddL	-he!
16eeJ}	.
{8dd	ein
=7	=7
8.bL	Hirſch-
16ddJ	.
8b	-lein
8aL	o-
8gJ	.
8a	-der
=8	=8
4.g	Reh.
4r}	.
==	==
!!!AGN: Soldaten -, Jaeger - Lied
!!!ONB: ESAC (Essen Associative Code) Database: ZUCCAL
!!!AMT: compound duple
!!!AIN: vox
!!!EED: Helmut Schaffrath
!!!EEV: 1.0
!!!GTL: III. Soldaten-, Jaeger-, Schiffer-, Fuhrmanns- und Handwerks-Lieder.
!!!URL-scan: https://www.digitale-sammlungen.de/de/view/bsb11160571?page=410
!!!ENC: Anna Maria Matuszewska
!!!EEV: 2025/01/29
*-	*-
